X:1
T:Married and Single Life
M:3/4
L:1/4
K:F
 c| B F F| C _E F| G F F| F2 B| c d c| B G F| F G B| c2 B/2B/2| c c c|\
 d f g| f d B| c2 c| B F F| C _E F| G F F| F2||
